X: 4
T: The Wonder
R: hornpipe
M: 4/4
L: 1/8
K: Fmaj
K: Bb
|:(3FGA|BfdB AecA|BcdB F2BA|GBcd edcB|Acfe (3agf (3edc|
BfdB AecA|BcdB F2BA|Ggfe|dcBA|c2B2 B2:|
|:(3dcB|Acf=e fdcB|Acf=e fagf|=efga bgeg|f=efg f2f_e|
dedc Bdg2|cdcB Acf2|gbag fedc|B2d2 B2:|


Tune 337	Setting 13125

